!!!!SEGMENT: Ser3003-Languir_me_fais.krn
!!!id: Ser3003
!!!AGN: Chanson
!!!SCT: Christoffersen (1994)
!!!voices: 3
!!!COM: Claudin de Sermisy
!!!OTL: Languir me fais
**kern	**kern	**kern
*part3	*part2	*part1
*staff3	*staff2	*staff1
*I"Bassus	*I"Tenor	*I"Superius
*I'B	*I'T	*I'S
*clefF4	*clefGv2	*clefG2
*k[b-]	*k[b-]	*k[b-]
*F:	*F:	*F:
*M2/1	*M2/1	*M2/1
*met(C|)	*met(C|)	*met(C|)
=1	=1	=1
0F	0A	0f
=2	=2	=2
1BB-y	1F	1d
1D	1F	1d
=3	=3	=3
1C	1G	1e
2r	2r	2r
2C	2G	2e
=4	=4	=4
2F	2A	2f
2D	2A	2f
2G	2B-y	2g
2G	2B-y	2g
=5	=5	=5
1.F	4c	4a
.	4B-y	4g
.	4A	4f
.	4G	4e
.	2A	2f
2E	[2B-y	[2g
=6	=6	=6
1D	4B-]	2g]
.	4A	.
.	4G	1f
.	4F	.
1C	1G	.
.	.	2e
=	=	=
2r	1F	1f
2F	.	.
1F	2r	2r
.	2c	2a
1D	1f	2a
.	.	2b-y
=7	=7	=7
1C	1e	1cc
2r	1c	2r
2F	.	2a
=8	=8	=8
1F	2r	1.a
.	2c	.
1D	2f	.
.	2f	2b-y
=9	=9	=9
1.C	2e	2.cc
.	2e	.
.	.	4b-y
.	2c	4a
.	.	4g
2BB-y	[2d	[2b-y
=10	=10	=10
1F	4d]	2b-]
.	4c	.
.	4B-y	1a
.	4A	.
1G	1B-y	.
.	.	2g
=11	=11	=11
2F	1A	2a
2A	.	2cc
2G	2r	2b-y
2F	2c	[2a
=12	=12	=12
2G	2B-y	4a]
.	.	4g
2E	4A	1g
.	4G	.
1D	2A	.
.	2A	2f#i
=13	=13	=13
1G	2G	1g
.	2G	.
2r	[1c	2r
2C	.	2g
=14	=14	=14
1.F	2c]	1.a
.	2c	.
.	2d	.
2F	2c	2a
=15	=15	=15
2G	2B-y	2b-y
2F	2.c	2a
2E	.	2g
.	4B-y	.
[2F	4A	[2a
.	4G	.
=16	=16	=16
2F]	2F	2a]
2E	2G	2g
2D	2A	1f
2BB-y	2B-y	.
=17	=17	=17
0C	0G	0e
=18	=18	=18
0F;	0A;	0f;
=19	=19	=19
1BB-y	1F	1d
1D	1F	1d
=20	=20	=20
1C	1G	1e
2r	2r	2r
2C	2G	2e
=21	=21	=21
2F	2A	2f
2D	2A	2f
2G	2B-y	2g
2G	2B-y	2g
=22	=22	=22
1.F	4c	4a
.	4B-y	4g
.	4A	4f
.	4G	4e
.	2A	2f
2E	[2B-y	[2g
=23	=23	=23
1D	4B-]	2g]
.	4A	.
.	4G	1f
.	4F	.
1C	1G	.
.	.	2e
=24	=24	=24
00Fl	00Fl	00fl
==	==	==
*-	*-	*-
!!!system-decoration: [*]
!!!RDF**kern: i = editorial accidental
!!!RDF**kern: l = terminal long
!!!ENC: Benjamin Ory
!!!END: 2021/1/8
!!!EED: Benjamin Ory
!!!EEV: 2021/04/27
!!!YEC: Copyright 2021 Benjamin Ory, All Rights Reserved
!!!ONB: Translated from MusicXML on 2021/04/27
